src/status/scalable/strawberry-panel-grey.svg

<svg xmlns="http://www.w3.org/2000/svg" xmlns:xlink="http://www.w3.org/1999/xlink" width="64" height="64" viewBox="0 0 64 64" version="1.1">
<g id="surface1">
<path style="fill-rule:nonzero;fill:rgb(18.039216%,20.392157%,25.098041%);fill-opacity:1;stroke-width:2.7915;stroke-linecap:butt;stroke-linejoin:miter;stroke:rgb(18.039216%,20.392157%,25.098041%);stroke-opacity:1;stroke-miterlimit:4;" d="M 9.688612 34.392049 C 13.828597 31.56711 17.873886 30.452306 21.938938 30.204689 C 18.305341 27.178978 15.597741 22.841768 14.151068 16.555762 C 14.139054 16.534953 14.129971 16.503204 14.127825 16.467449 C 13.92929 15.610995 14.462934 14.757235 15.319389 14.5587 C 18.479196 13.816413 21.77854 13.844414 25.188028 14.511701 C 27.047411 14.880915 28.943412 15.4417 30.868022 16.180183 C 30.101395 14.467929 29.601852 12.7217 29.409153 10.946286 C 29.080187 7.79755 29.728602 4.611671 31.631926 1.468873 C 31.915944 0.999695 32.421216 0.689474 33.002368 0.686882 C 36.134667 0.681851 38.922983 2.179445 41.370588 4.57663 C 43.296378 6.470481 45.009161 8.940484 46.511502 11.670715 C 47.60114 8.960713 49.036963 6.577996 50.796879 4.692541 C 53.221233 2.099773 56.22784 0.419367 59.817354 0.0208809 C 60.499329 -0.0954134 61.197194 0.23229 61.516 0.880579 C 62.86624 3.587645 63.295245 6.669374 63.05722 9.877265 C 62.900752 11.993001 62.457465 14.172602 61.790569 16.333332 C 63.13892 15.721318 64.589246 15.253892 66.148485 14.927049 C 69.179724 14.314483 72.610857 14.266395 76.470205 14.89591 L 76.531846 14.906563 C 77.404686 15.040758 78.002382 15.851721 77.882059 16.716552 C 76.997895 22.729824 74.47327 27.119183 70.896926 30.247587 C 74.171039 30.632347 77.622014 31.691858 81.528322 33.940474 C 83.033251 34.801036 84.380793 35.78946 85.580815 36.890801 C 86.796857 38.019887 87.847502 39.262964 88.717806 40.610162 C 92.391245 46.331896 92.642271 54.279303 91.120815 62.408468 C 89.118328 73.164451 84.00129 84.340645 79.776819 90.719501 C 76.362577 95.890693 72.094236 101.120333 66.818911 106.431953 C 61.570258 111.709677 55.33836 117.046427 47.963398 122.469737 C 47.206852 123.017518 46.21531 122.998098 45.492842 122.499632 C 37.838449 117.171177 31.019414 111.591628 25.130986 105.733739 C 19.223608 99.859045 14.260708 93.698002 10.341542 87.230296 C 5.542701 79.31907 0.287711 66.917536 0.0110544 55.674004 C -0.201444 47.232685 2.321789 39.412979 9.688612 34.392049 Z M 15.081479 56.323054 C 17.078927 53.791796 17.784169 52.210071 17.778906 50.807355 C 17.777647 49.411575 16.797647 47.970489 15.079005 47.973188 C 13.349422 47.972955 12.546993 49.370333 12.552257 50.773049 C 12.564456 52.17176 13.130769 53.296791 15.081479 56.323054 Z M 54.262597 105.940574 C 56.260046 103.409316 56.958352 101.831597 56.964029 100.431812 C 56.958766 99.029096 55.978765 97.58801 54.260123 97.590708 C 52.53054 97.590476 51.728112 98.987853 51.733375 100.39057 C 51.727698 101.790354 52.304951 102.918316 54.262597 105.940574 Z M 39.019186 105.039962 C 41.016634 102.508704 41.721876 100.926979 41.720618 99.5312 C 41.715354 98.128483 40.739358 96.694333 39.016712 96.690096 C 37.287129 96.689863 36.488705 98.094177 36.489964 99.489957 C 36.502163 100.888669 37.072481 102.020635 39.019186 105.039962 Z M 31.25317 90.49982 C 33.250618 87.968562 33.948924 86.390842 33.954602 84.991058 C 33.949339 83.588342 32.969338 82.147255 31.250696 82.149954 C 29.521113 82.149721 28.718685 83.547099 28.723948 84.949815 C 28.729211 86.352531 29.299529 87.484498 31.25317 90.49982 Z M 62.159122 90.496079 C 64.160575 87.971757 64.858881 86.394037 64.860554 84.987317 C 64.859296 83.591537 63.879295 82.15045 62.160653 82.153149 C 60.43107 82.152916 59.628641 83.550294 59.6299 84.946074 C 59.635164 86.34879 60.212417 87.476752 62.159122 90.496079 Z M 46.480062 89.033135 C 48.47751 86.501877 49.182752 84.920152 49.177489 83.517436 C 49.183167 82.117652 48.19623 80.68057 46.477588 80.683269 C 44.748005 80.683036 43.952513 82.076409 43.95084 83.48313 C 43.963039 84.881841 44.52642 86.017813 46.480062 89.033135 Z M 70.682997 75.161044 C 72.680445 72.629786 73.378751 71.052066 73.380424 69.645346 C 73.379166 68.249566 72.399165 66.808479 70.680523 66.811178 C 68.95094 66.810945 68.148512 68.208323 68.153775 69.611039 C 68.148097 71.010824 68.725351 72.138786 70.682997 75.161044 Z M 56.017727 74.028368 C 58.01918 71.504046 58.720417 69.915385 58.719159 68.519606 C 58.7179 67.123826 57.737899 65.682739 56.015253 65.678502 C 54.296611 65.681201 53.487246 67.082583 53.488505 68.478363 C 53.493768 69.881079 54.071022 71.009041 56.017727 74.028368 Z M 38.52818 74.026904 C 40.529633 71.502583 41.234876 69.920858 41.229612 68.518142 C 41.228354 67.122362 40.248353 65.681276 38.529711 65.683975 C 36.800128 65.683742 35.9977 67.08112 35.998958 68.4769 C 36.004222 69.879616 36.581475 71.007578 38.52818 74.026904 Z M 23.299742 74.033237 C 25.29719 71.501979 26.002433 69.920255 25.997169 68.517539 C 26.002847 67.117754 25.01591 65.680673 23.304204 65.679367 C 21.567685 65.683139 20.772193 67.076512 20.77052 68.483233 C 20.771779 69.879013 21.349032 71.006974 23.299742 74.033237 Z M 77.420903 56.316199 C 79.422356 53.791877 80.120662 52.214157 80.122335 50.807436 C 80.121077 49.411657 79.141076 47.97057 77.418429 47.966333 C 75.688846 47.9661 74.890423 49.370414 74.891681 50.766194 C 74.896945 52.16891 75.467262 53.300877 77.420903 56.316199 Z M 62.081197 56.322035 C 64.078646 53.790777 64.783888 52.209052 64.778625 50.806336 C 64.777366 49.410556 63.797365 47.96947 62.078723 47.972169 C 60.34914 47.971936 59.546712 49.369314 59.551975 50.77203 C 59.564175 52.170741 60.130487 53.295772 62.081197 56.322035 Z M 47.271943 56.317557 C 49.269391 53.786299 49.967697 52.208579 49.973375 50.808795 C 49.972116 49.413015 48.992116 47.971928 47.269469 47.967691 C 45.550827 47.97039 44.741462 49.371772 44.742721 50.767552 C 44.747984 52.170268 45.318302 53.302235 47.271943 56.317557 Z M 30.069504 56.3168 C 32.070957 53.792478 32.769264 52.214758 32.770937 50.808037 C 32.769678 49.412258 31.789677 47.971171 30.071035 47.97387 C 28.341452 47.973637 27.539024 49.371015 27.540282 50.766795 C 27.53861 52.173516 28.122799 53.297473 30.069504 56.3168 Z M 28.142759 30.377692 C 30.323355 30.598444 32.522404 30.947268 34.769221 31.314754 C 38.71395 31.931967 42.821721 32.575277 47.082427 32.53839 C 51.156353 32.498363 54.861506 32.412295 58.280179 31.798001 C 60.783688 31.360647 63.110911 30.377687 65.508309 30.205063 C 65.862057 30.000823 66.208868 29.800587 66.550602 29.575539 C 70.386257 27.120524 73.279315 23.369299 74.447813 17.848499 C 71.604113 17.520433 69.047391 17.609325 66.789372 18.071413 C 64.024145 18.632127 61.669753 19.760251 59.704812 21.338653 C 59.023779 21.889077 58.019936 21.784276 57.469512 21.103244 C 57.088856 20.620142 57.019545 20.003524 57.249644 19.472993 C 58.660625 16.198277 59.649989 12.834044 59.876288 9.669916 L 59.87922 9.658976 C 60.048984 7.406086 59.830816 5.266193 59.124966 3.370874 C 56.800516 3.862068 54.786367 5.098946 53.131279 6.877635 C 50.964063 9.210962 49.351354 12.47267 48.337048 16.258233 C 48.11933 17.114557 47.238429 17.623155 46.391972 17.390492 C 45.910571 17.261505 45.531564 16.925425 45.340909 16.499095 C 43.633306 12.740575 41.546357 9.238068 39.128644 6.860618 C 37.519147 5.274317 35.757996 4.210249 33.890106 3.93843 C 32.732806 6.178836 32.343438 8.41979 32.56883 10.620252 C 32.85924 13.365822 34.118237 16.107073 36.092032 18.740823 C 36.618716 19.444811 36.470151 20.436928 35.770168 20.970548 C 35.248381 21.364292 34.581848 21.379186 34.055034 21.091451 C 30.779165 19.42218 27.607785 18.238235 24.572148 17.641802 C 22.171869 17.168703 19.850691 17.056863 17.626778 17.369782 C 19.51224 24.031339 23.141861 27.947191 27.852144 30.258782 C 27.961553 30.288097 28.050154 30.329427 28.142759 30.377692 Z M 63.161173 34.741652 C 58.16727 36.552122 52.456525 37.121008 46.814905 36.928608 C 41.677065 36.759791 36.750741 36.348625 32.30901 35.222999 C 25.181124 34.122269 18.572906 33.48912 12.091486 37.897121 C 6.11026 41.970088 4.078896 48.479237 4.249591 55.566682 C 4.505699 65.989722 9.440234 77.595946 13.959819 85.039513 C 17.687833 91.192157 22.439844 97.06803 28.118745 102.723199 C 33.502162 108.058803 39.70921 113.187079 46.669455 118.130195 C 53.328128 113.148188 58.998767 108.264964 63.800361 103.430322 C 68.859093 98.336238 72.964472 93.320915 76.230698 88.373908 C 80.221274 82.342806 85.049007 71.786817 86.951901 61.643238 C 88.290897 54.479518 88.146952 47.59859 85.149732 42.919934 C 84.460425 41.838171 83.638545 40.879192 82.710763 40.009102 C 81.75309 39.119276 80.657766 38.327421 79.427722 37.622597 C 73.310323 34.107271 68.335812 34.029122 63.161173 34.741652 Z M 63.161173 34.741652 " transform="matrix(0.422371,0.24386,-0.24386,0.422371,25.966544,-3.834182)"/>
</g>
</svg>

<svg width="64" height="64" version="1.1" viewBox="0 0 64 64" xmlns="http://www.w3.org/2000/svg">
 <g fill="#eceff4" stroke="#eceff4">
  <path transform="matrix(.42237 .24386 -.24386 .42237 25.967 -3.8342)" d="m9.6886 34.392c4.14-2.8249 8.1853-3.9397 12.25-4.1874-3.6336-3.0257-6.3412-7.3629-7.7879-13.649-0.012014-0.020809-0.021097-0.052558-0.023243-0.088313-0.19854-0.85645 0.33511-1.7102 1.1916-1.9087 3.1598-0.74229 6.4592-0.71429 9.8686-0.046999 1.8594 0.36921 3.7554 0.93 5.68 1.6685-0.76663-1.7123-1.2662-3.4585-1.4589-5.2339-0.32897-3.1487 0.31945-6.3346 2.2228-9.4774 0.28402-0.46918 0.78929-0.7794 1.3704-0.78199 3.1323-0.005031 5.9206 1.4926 8.3682 3.8897 1.9258 1.8939 3.6386 4.3639 5.1409 7.0941 1.0896-2.71 2.5255-5.0927 4.2854-6.9782 2.4244-2.5928 5.431-4.2732 9.0205-4.6717 0.68198-0.11629 1.3798 0.21141 1.6986 0.8597 1.3502 2.7071 1.7792 5.7888 1.5412 8.9967-0.15647 2.1157-0.59976 4.2953-1.2667 6.4561 1.3484-0.61201 2.7987-1.0794 4.3579-1.4063 3.0312-0.61257 6.4624-0.66065 10.322-0.031139l0.061641 0.010653c0.87284 0.1342 1.4705 0.94516 1.3502 1.81-0.88416 6.0133-3.4088 10.403-6.9851 13.531 3.2741 0.38476 6.7251 1.4443 10.631 3.6929 1.5049 0.86056 2.8525 1.849 4.0525 2.9503 1.216 1.1291 2.2667 2.3722 3.137 3.7194 3.6734 5.7217 3.9245 13.669 2.403 21.798-2.0025 10.756-7.1195 21.932-11.344 28.311-3.4142 5.1712-7.6826 10.401-12.958 15.712-5.2487 5.2777-11.481 10.614-18.856 16.038-0.75655 0.54778-1.7481 0.52836-2.4706 0.029895-7.6544-5.3285-14.473-10.908-20.362-16.766-5.9074-5.8747-10.87-12.036-14.789-18.503-4.7988-7.9112-10.054-20.313-10.33-31.556-0.2125-8.4413 2.3107-16.261 9.6776-21.282zm5.3929 21.931c1.9974-2.5313 2.7027-4.113 2.6974-5.5157-0.001259-1.3958-0.98126-2.8369-2.6999-2.8342-1.7296-2.33e-4 -2.532 1.3971-2.5267 2.7999 0.012199 1.3987 0.57851 2.5237 2.5292 5.55zm39.181 49.618c1.9974-2.5313 2.6958-4.109 2.7014-5.5088-0.005263-1.4027-0.98526-2.8438-2.7039-2.8411-1.7296-2.32e-4 -2.532 1.3971-2.5267 2.7999-0.005677 1.3998 0.57158 2.5277 2.5292 5.55zm-15.243-0.90061c1.9974-2.5313 2.7027-4.113 2.7014-5.5088-0.005264-1.4027-0.98126-2.8369-2.7039-2.8411-1.7296-2.33e-4 -2.528 1.4041-2.5267 2.7999 0.012199 1.3987 0.58252 2.5307 2.5292 5.55zm-7.766-14.54c1.9974-2.5313 2.6958-4.109 2.7014-5.5088-0.005263-1.4027-0.98526-2.8438-2.7039-2.8411-1.7296-2.33e-4 -2.532 1.3971-2.5267 2.7999s0.57558 2.5347 2.5292 5.55zm30.906-0.003741c2.0015-2.5243 2.6998-4.102 2.7014-5.5088-0.001258-1.3958-0.98126-2.8369-2.6999-2.8342-1.7296-2.33e-4 -2.532 1.3971-2.5308 2.7929 0.005264 1.4027 0.58252 2.5307 2.5292 5.55zm-15.679-1.4629c1.9974-2.5313 2.7027-4.113 2.6974-5.5157 0.005678-1.3998-0.98126-2.8369-2.6999-2.8342-1.7296-2.33e-4 -2.5251 1.3931-2.5267 2.7999 0.012199 1.3987 0.57558 2.5347 2.5292 5.55zm24.203-13.872c1.9974-2.5313 2.6958-4.109 2.6974-5.5157-0.001258-1.3958-0.98126-2.8369-2.6999-2.8342-1.7296-2.33e-4 -2.532 1.3971-2.5267 2.7999-0.005678 1.3998 0.57158 2.5277 2.5292 5.55zm-14.665-1.1327c2.0015-2.5243 2.7027-4.113 2.7014-5.5088-0.001259-1.3958-0.98126-2.8369-2.7039-2.8411-1.7186 0.002699-2.528 1.4041-2.5267 2.7999 0.005263 1.4027 0.58252 2.5307 2.5292 5.55zm-17.49-0.001464c2.0015-2.5243 2.7067-4.106 2.7014-5.5088-0.001258-1.3958-0.98126-2.8369-2.6999-2.8342-1.7296-2.33e-4 -2.532 1.3971-2.5308 2.7929 0.005264 1.4027 0.58252 2.5307 2.5292 5.55zm-15.228 0.006333c1.9974-2.5313 2.7027-4.113 2.6974-5.5157 0.005678-1.3998-0.98126-2.8369-2.693-2.8382-1.7365 0.003772-2.532 1.3971-2.5337 2.8039 0.001259 1.3958 0.57851 2.5237 2.5292 5.55zm54.121-17.717c2.0015-2.5243 2.6998-4.102 2.7014-5.5088-0.001258-1.3958-0.98126-2.8369-2.7039-2.8411-1.7296-2.33e-4 -2.528 1.4041-2.5267 2.7999 0.005264 1.4027 0.57558 2.5347 2.5292 5.55zm-15.34 0.005836c1.9974-2.5313 2.7027-4.113 2.6974-5.5157-0.001259-1.3958-0.98126-2.8369-2.6999-2.8342-1.7296-2.33e-4 -2.532 1.3971-2.5267 2.7999 0.0122 1.3987 0.57851 2.5237 2.5292 5.55zm-14.809-0.004478c1.9974-2.5313 2.6958-4.109 2.7014-5.5088-0.001259-1.3958-0.98126-2.8369-2.7039-2.8411-1.7186 0.002699-2.528 1.4041-2.5267 2.7999 0.005263 1.4027 0.57558 2.5347 2.5292 5.55zm-17.202-7.57e-4c2.0015-2.5243 2.6998-4.102 2.7014-5.5088-0.001259-1.3958-0.98126-2.8369-2.6999-2.8342-1.7296-2.33e-4 -2.532 1.3971-2.5308 2.7929-0.001672 1.4067 0.58252 2.5307 2.5292 5.55zm-1.9267-25.939c2.1806 0.22075 4.3796 0.56958 6.6265 0.93706 3.9447 0.61721 8.0525 1.2605 12.313 1.2236 4.0739-0.040027 7.7791-0.1261 11.198-0.74039 2.5035-0.43735 4.8307-1.4203 7.2281-1.5929 0.35375-0.20424 0.70056-0.40448 1.0423-0.62952 3.8357-2.455 6.7287-6.2062 7.8972-11.727-2.8437-0.32807-5.4004-0.23917-7.6584 0.22291-2.7652 0.56071-5.1196 1.6888-7.0846 3.2672-0.68103 0.55042-1.6849 0.44562-2.2353-0.23541-0.38066-0.4831-0.44997-1.0997-0.21987-1.6303 1.411-3.2747 2.4003-6.6389 2.6266-9.8031l0.002932-0.01094c0.16976-2.2529-0.048404-4.3928-0.75425-6.2881-2.3244 0.49119-4.3386 1.7281-5.9937 3.5068-2.1672 2.3333-3.7799 5.595-4.7942 9.3806-0.21772 0.85632-1.0986 1.3649-1.9451 1.1323-0.4814-0.12899-0.86041-0.46507-1.0511-0.8914-1.7076-3.7585-3.7946-7.261-6.2123-9.6385-1.6095-1.5863-3.3706-2.6504-5.2385-2.9222-1.1573 2.2404-1.5467 4.4814-1.3213 6.6818 0.29041 2.7456 1.5494 5.4868 3.5232 8.1206 0.52668 0.70399 0.37812 1.6961-0.32186 2.2297-0.52179 0.39374-1.1883 0.40864-1.7151 0.1209-3.2759-1.6693-6.4472-2.8532-9.4829-3.4496-2.4003-0.4731-4.7215-0.58494-6.9454-0.27202 1.8855 6.6616 5.5151 10.577 10.225 12.889 0.10941 0.029315 0.19801 0.070645 0.29062 0.11891zm35.018 4.364c-4.9939 1.8105-10.705 2.3794-16.346 2.187-5.1378-0.16882-10.064-0.57998-14.506-1.7056-7.1279-1.1007-13.736-1.7339-20.218 2.6741-5.9812 4.073-8.0126 10.582-7.8419 17.67 0.25611 10.423 5.1906 22.029 9.7102 29.473 3.728 6.1526 8.48 12.029 14.159 17.684 5.3834 5.3356 11.59 10.464 18.551 15.407 6.6587-4.982 12.329-9.8652 17.131-14.7 5.0587-5.0941 9.1641-10.109 12.43-15.056 3.9906-6.0311 8.8183-16.587 10.721-26.731 1.339-7.1637 1.1951-14.045-1.8022-18.723-0.68931-1.0818-1.5112-2.0407-2.439-2.9108-0.95767-0.88983-2.053-1.6817-3.283-2.3865-6.1174-3.5153-11.092-3.5935-16.267-2.8809z" fill="#eceff4" stroke="#eceff4" stroke-width="2.7915"/>
 </g>
</svg>
